!!!OTL: N&auml;chtlicher Besuch (173a), S. 380
!!!id: T0349
**kern
*clefG2
*k[b-]
*F:
{8c
=1
8f
8a
4.cc
8cc
=2
8a
8g
4.f}
=3
{8cc
=4
8cc
8ff
4.ff
8b-
=5
8dd
8cc
4cc}
8r
=6
{8cc
=7
8ff
8ee
4.dd
8ff
=8
8ff
8dd
4.cc}
=9
{8cc
=10
8dd
8a
4.cc
8a
=11
8b-
8g
4.a}
=12
{8a
=13
8a
8a
4cc
8a
8f
=14
8g
8f}
4.r
=15
{8cc
=16
8ff
8ee
4.dd
8ff
=17
8ff
8dd
4.cc}
=18
{8cc
=19
8dd
8a
4.cc
8a
=20
8b-
8g
4.a}
=21
{8a
=22
8a
8a
4cc
8a
8f
=23
8g
8f}
4.r
==
*-
!!!minrhy: 8
!!!meters: 3/4 ]  ZZ[8
!!!cut: N&auml;chtlicher Besuch (173a), S. 380
!!!reg: Luxemburg
!!!trd: Singendes Volk, Esch-Alzette, 1937 posth.
!!!rhy1: X  XXX_.X  XXX_.
!!!rhy2: X  XXX_.X  XXX_0
!!!key: T0349  08  F 3/4 ]  ZZ[8
!!!mod: HEPTATONIK IONISCH]  AMBITUS[11
!!!kad: 15531531
!!!akz: 13_56_+1+1_64_32_+1+1_64_32_
!!!fot: 'a__b__c__d__e__c__d__e__
!!!for: 'a__av_a__a__b__a__a__b__
!!!fok: '^a_^__^__\__\__^__\__\__
!! PHRAS[AUFTAKTIG]
!!!fkt: Tage-. W&auml;chter-, Fenstergang-, St&auml;ndchenlieder, Liebeslied
!!!bem: StraPen, fff Witry, 10.1.1933
!! THILL, Mathias:
!! PR[35] 2K[2] 2G[11] 3K[4] 3G[2] 4A[11] 4Ü[0] 5A[2] 6K[0] 6G[0]
!! 7K[0] 7G[0] 8A[0] MEHR[0] SI[31] ABS[54] SR[13] SP[19]
!! ST[11] 2k[2] 2g[13] 3k[11] 3g[4] 4d[0] 4ü[0] 5d[4] 6k[0] 6g[0]
!! 7k[0] 7g[0] 8d[0] mehr[0] si[33] dm[-2] sr[15] sp[19]
!! 1F[42] 2F[56] 3F[0] 4F[0] LF[0] 2P[2] 3P[0] 4P[0] TRI[0] DF[3] AB[55]
!! TF[0] U3K[0] U3[0] U4[0] U4Ü[0] U5[5] U6K[0] U6[0] U7K[0] U7[0]
!! N1[24] N2K[0] N2[18] N3K[0] N3[24] N4[9] N4Ü[0] N5[18] N6K[0] N6[2]
!!!n7k: 0] N7[0] O1[0] O2K[0] O2[0] O3K[0] O3[0] HÖ[0
!!!RNB: symbol: &auml;      = a umlaut  (UTF-8: Å„)
